img/svg/calendar.svg

<?xml version="1.0" encoding="UTF-8" standalone="no"?>
<svg width="24px" height="24px" viewBox="0 0 24 24" version="1.1" xmlns="http://www.w3.org/2000/svg" xmlns:xlink="http://www.w3.org/1999/xlink">
    <!-- Generator: Sketch 46.2 (44496) - http://www.bohemiancoding.com/sketch -->
    <title>icon/line/ calendar 1</title>
    <desc>Created with Sketch.</desc>
    <defs></defs>
    <g id="Tid-på-infomeldinger-som-går-frem-og-tilbake" stroke="none" stroke-width="1" fill="none" fill-rule="evenodd">
        <g id="AG_Motatt-for-godkjenning" transform="translate(-241.000000, -835.000000)" fill="#3E3832">
            <g id="icon/line/-calendar-1" transform="translate(241.000000, 835.000000)">
                <g id="calendar-1">
                    <path d="M23.5,2 L20,2 L20,0.5 C20,0.224 19.776,0 19.5,0 L16.5,0 C16.224,0 16,0.224 16,0.5 L16,2 L8,2 L8,0.5 C8,0.224 7.776,0 7.5,0 L4.5,0 C4.224,0 4,0.224 4,0.5 L4,2 L0.5,2 C0.224,2 0,2.224 0,2.5 L0,23.5 C0,23.776 0.224,24 0.5,24 L23.5,24 C23.776,24 24,23.776 24,23.5 L24,2.5 C24,2.224 23.776,2 23.5,2 Z M17,1 L19,1 L19,4 L17,4 L17,1 Z M5,1 L7,1 L7,4 L5,4 L5,1 Z M4,3 L4,4.5 C4,4.776 4.224,5 4.5,5 L7.5,5 C7.776,5 8,4.776 8,4.5 L8,3 L16,3 L16,4.5 C16,4.776 16.224,5 16.5,5 L19.5,5 C19.776,5 20,4.776 20,4.5 L20,3 L23,3 L23,7 L1,7 L1,3 L4,3 Z M1,23 L1,8 L23,8 L23,23 L1,23 Z" id="Shape" fill-rule="nonzero"></path>
                </g>
            </g>
        </g>
    </g>
</svg>

<svg width="24" height="24" xmlns="http://www.w3.org/2000/svg"><path d="M23.5 2H20V.5a.5.5 0 0 0-.5-.5h-3a.5.5 0 0 0-.5.5V2H8V.5a.5.5 0 0 0-.5-.5h-3a.5.5 0 0 0-.5.5V2H.5a.5.5 0 0 0-.5.5v21a.5.5 0 0 0 .5.5h23a.5.5 0 0 0 .5-.5v-21a.5.5 0 0 0-.5-.5zM17 1h2v3h-2V1zM5 1h2v3H5V1zM4 3v1.5a.5.5 0 0 0 .5.5h3a.5.5 0 0 0 .5-.5V3h8v1.5a.5.5 0 0 0 .5.5h3a.5.5 0 0 0 .5-.5V3h3v4H1V3h3zM1 23V8h22v15H1z" fill-rule="nonzero" fill="#3E3832"/></svg>
